X:20
T:RVW2/2/20 Pride of Kildare
L:1/4
Q:1/4=120
M:3/4
I:linebreak $
K:G
"^(Editorial suggestion) " G/>A/ | B A B/B/ | A/G/ E E | D G G | G2 G/B/ |$ d d e | d B G | 
d/B/ A3/2 G/ | A2 G/>A/ |$ B A B/B/ | A/G/ E F | D G G | G2 |] 



